X: 1
T: the Bonnie Lass o' Bon-Accord
C: J.S.Skinner
R: strathspey
S: Handwritten MS of unknown origin in Concord Slow Scottish collection (with "S.V." at upper right)
Z: 2018 John Chambers <jc:trillian.mit.edu>
M: C
L: 1/8
K: A
"A:"|: E2 |\
"A"A3B "E"c3B | "A"A2A,2 C2E2 | "A"AGAf "F#m"ecBA | "Bm"B4- "E7"B2c2 |\
"A"A3B "E"c3B | "A"A2C2 E2=G2 | "D"FDFA "E7"GEGB | "A-D-A"A6 :|
"B1:"[|] (3efg |\
"A"a3c "D"d2f2 | "A"e2A2 a2gf | "A"e2A2 "F#m"fedc | "Bm"B4- "E7"B2 (3efg |\
"A"a3c "D"d2f2 | "A"eAcA a2=G2 | "D"FDFA "E7"GEGB | "D A"A6  |]
"B2:"[|] (3efg |\
"A"a3c "D"d2f2 | "A"e2A2 a2gf | "A"e2A2 "F#m"fedc | "Bm"B4- "E7"B2c2 |\
"A"A,CEA "(/G#)"c3B | "F#m"A2C2 "A7"E2=G2 | "D"FDFA "E7"GEGB | "D A"A6 |]

